img/svg/clip.svg

<svg width="32" height="32" viewBox="0 0 32 32" fill="none" xmlns="http://www.w3.org/2000/svg">
<g clip-path="url(#clip0)">
<path d="M30.0919 2.94695C28.8594 1.71453 27.2208 1.03577 25.4778 1.03577C23.7348 1.03577 22.0963 1.71453 20.8638 2.94695L1.47921 22.3316C-0.493071 24.3039 -0.493071 27.5129 1.47921 29.4852C2.46532 30.4713 3.76068 30.9644 5.05604 30.9644C6.35132 30.9644 7.64668 30.4713 8.63279 29.4852L23.8997 14.2183C25.2986 12.8194 25.2986 10.5433 23.8997 9.1444C22.5009 7.74554 20.2247 7.74554 18.8259 9.1444L9.01771 18.9525C8.71834 19.2518 8.71834 19.7373 9.01771 20.0367C9.31707 20.3361 9.80257 20.3361 10.1019 20.0367L19.91 10.2286C20.711 9.42759 22.0145 9.42759 22.8154 10.2286C23.6165 11.0297 23.6165 12.3331 22.8154 13.1341L7.54871 28.4011C6.17423 29.7755 3.93784 29.7756 2.56337 28.4011C1.89756 27.7353 1.53088 26.8501 1.53088 25.9084C1.53088 24.9668 1.89756 24.0816 2.56337 23.4157L21.9479 4.03119C22.8908 3.08832 24.1444 2.56909 25.4778 2.56909C26.8113 2.56909 28.0649 3.08832 29.0077 4.03119C30.954 5.97756 30.954 9.14455 29.0077 11.0909L15.0818 25.0168C14.7825 25.3161 14.7825 25.8015 15.0818 26.101C15.3812 26.4004 15.8666 26.4004 16.1661 26.101L30.0919 12.1752C32.636 9.63089 32.636 5.49114 30.0919 2.94695Z" fill="white"/>
</g>
<defs>
<clipPath id="clip0">
<rect width="32" height="32" fill="white"/>
</clipPath>
</defs>
</svg>

<svg width="32" height="32" viewBox="0 0 32 32" fill="none" xmlns="http://www.w3.org/2000/svg"><g clip-path="url(#a)"><path d="M30.092 2.947a6.483 6.483 0 0 0-4.614-1.911 6.483 6.483 0 0 0-4.614 1.911L1.479 22.332a5.064 5.064 0 0 0 0 7.153 5.043 5.043 0 0 0 3.577 1.48c1.295 0 2.59-.494 3.577-1.48L23.9 14.218a3.592 3.592 0 0 0 0-5.074 3.592 3.592 0 0 0-5.074 0l-9.808 9.809a.767.767 0 0 0 1.084 1.084l9.808-9.808a2.057 2.057 0 0 1 2.905 0 2.057 2.057 0 0 1 0 2.905L7.55 28.401a3.53 3.53 0 0 1-4.986 0 3.502 3.502 0 0 1-1.032-2.493c0-.941.367-1.826 1.032-2.492L21.948 4.03a4.96 4.96 0 0 1 3.53-1.462 4.96 4.96 0 0 1 3.53 1.462 4.998 4.998 0 0 1 0 7.06L15.082 25.017a.767.767 0 0 0 1.084 1.084l13.926-13.926a6.533 6.533 0 0 0 0-9.228z" fill="#fff"/></g><defs><clipPath id="a"><path fill="#fff" d="M0 0h32v32H0z"/></clipPath></defs></svg>
